X: 2152
Q: "Reel."
M: C
L: 1/8
K: D
d2(fd) AAfd | eefd B3A |\
defd AAfd | fedB A3 ::\
uf |\
adad feef | adad B3f |\
[1 adad feef | dedB A3 :|\
[2 adab afef | dedB A3 :|


